X: 1
T: Gan Ainm
M: 4/4
L: 1/8
R: reel
K: Emin
|:eBBB egfe|defg afdf|eBBB gdd2|gfed e2BD:|gfed e2BA||
E2cE BEAE|G2GA GFED|G2BG dGBG|GBdf gfed|
e2ge bege|d2fd adfd|egfd egfd|eBGB e2BD|
